src/animals-nature/plant-other/1F342.svg

<svg id="emoji" viewBox="0 0 72 72" xmlns="http://www.w3.org/2000/svg">
  <g id="grid">
    <path fill="#b3b3b3" d="M68,4V68H4V4H68m4-4H0V72H72V0Z"/>
    <path fill="none" stroke="#00a5ff" stroke-miterlimit="10" stroke-width="0.1" d="M12.923,10.9583H59.0769A1.9231,1.9231,0,0,1,61,12.8814V59.0352a1.9231,1.9231,0,0,1-1.9231,1.9231H12.9231A1.9231,1.9231,0,0,1,11,59.0352V12.8813A1.923,1.923,0,0,1,12.923,10.9583Z"/>
    <rect x="16" y="4" rx="2.2537" width="40" height="64" fill="none" stroke="#00a5ff" stroke-miterlimit="10" stroke-width="0.1"/>
    <rect x="16" y="4" rx="2.2537" width="40" height="64" transform="translate(72) rotate(90)" fill="none" stroke="#00a5ff" stroke-miterlimit="10" stroke-width="0.1"/>
    <circle cx="36" cy="36" r="29" fill="none" stroke="#00a5ff" stroke-miterlimit="10" stroke-width="0.1"/>
  </g>
  <g id="color">
    <path fill="#a57939" d="M55.732,36.689c5.4323,6.2313,4.1316,16.317,4.1316,16.317s-9.9309-.223-15.3631-6.4543-4.1316-16.317-4.1316-16.317S50.4152,30.3037,55.732,36.689Z"/>
    <path fill="#e27022" d="M19.7623,22.3615C26.1543,17.0075,36.05,18.5,36.05,18.5s-.47,10.065-6.7623,15.2543S13,37.6159,13,37.6159,13.37,27.7156,19.7623,22.3615Z"/>
  </g>
  <g id="line">
    <path fill="none" stroke="#000" stroke-linecap="round" stroke-linejoin="round" stroke-width="2" d="M19.7623,22.3615C26.1543,17.0075,36.05,18.5,36.05,18.5s-.47,10.065-6.7623,15.2543S13,37.6159,13,37.6159,13.37,27.7156,19.7623,22.3615Z"/>
    <path fill="none" stroke="#000" stroke-linecap="round" stroke-linejoin="round" stroke-width="2" d="M55.732,36.689c5.4323,6.2313,4.1316,16.317,4.1316,16.317s-9.9309-.223-15.3631-6.4543-4.1316-16.317-4.1316-16.317S50.4152,30.3037,55.732,36.689Z"/>
  </g>
</svg>

<svg viewBox="0 0 72 72" xmlns="http://www.w3.org/2000/svg"><path fill="#b3b3b3" d="M68 4v64H4V4h64m4-4H0v72h72V0z"/><path fill="none" stroke="#00a5ff" stroke-miterlimit="10" stroke-width=".1" d="M12.923 10.958h46.154A1.923 1.923 0 0161 12.881v46.154a1.923 1.923 0 01-1.923 1.923H12.923A1.923 1.923 0 0111 59.035V12.881a1.923 1.923 0 011.923-1.923z"/><rect x="16" y="4" rx="2.254" width="40" height="64" fill="none" stroke="#00a5ff" stroke-miterlimit="10" stroke-width=".1"/><rect x="16" y="4" rx="2.254" width="40" height="64" transform="rotate(90 36 36)" fill="none" stroke="#00a5ff" stroke-miterlimit="10" stroke-width=".1"/><circle cx="36" cy="36" r="29" fill="none" stroke="#00a5ff" stroke-miterlimit="10" stroke-width=".1"/><path d="M19.762 22.361C26.154 17.008 36.05 18.5 36.05 18.5s-.47 10.065-6.762 15.254S13 37.616 13 37.616s.37-9.9 6.762-15.255zm35.97 14.328c5.432 6.231 4.132 16.317 4.132 16.317s-9.931-.223-15.363-6.454-4.132-16.317-4.132-16.317 10.046.069 15.363 6.454z" stroke-linecap="round" stroke-miterlimit="10" stroke-width="6" stroke="#fff" fill="none" stroke-linejoin="round"/><path fill="#a57939" d="M55.732 36.689c5.432 6.231 4.132 16.317 4.132 16.317s-9.931-.223-15.363-6.454-4.132-16.317-4.132-16.317 10.046.069 15.363 6.454z"/><path fill="#e27022" d="M19.762 22.361C26.154 17.008 36.05 18.5 36.05 18.5s-.47 10.065-6.762 15.254S13 37.616 13 37.616s.37-9.9 6.762-15.255z"/><g fill="none" stroke="#000" stroke-linecap="round" stroke-linejoin="round" stroke-width="2"><path d="M19.762 22.361C26.154 17.008 36.05 18.5 36.05 18.5s-.47 10.065-6.762 15.254S13 37.616 13 37.616s.37-9.9 6.762-15.255zm35.97 14.328c5.432 6.231 4.132 16.317 4.132 16.317s-9.931-.223-15.363-6.454-4.132-16.317-4.132-16.317 10.046.069 15.363 6.454z"/></g></svg>
